!!!COM: Bach, Johann Sebastian
!!!CDT: 1685/3//-1750/7/28/
!!!OTL@@DE: Nun lob', mein' Seel', den Herren
!!!AGN: 4-Part Chorale
!!!SCT: BH 268
!!!SCT: BWV 389
**harm	**root	**kern	**kern	**kern	**kern
!	!	!bass	!tenor	!alto	!soprno
*	*Iorgan	*Iorgan	*Iorgan	*Iorgan	*Iorgan
*M4/4	*M4/4	*M4/4	*M4/4	*M4/4	*M4/4
*met(c)	*met(c)	*met(c)	*met(c)	*met(c)	*met(c)
*MM60	*MM60	*MM60	*MM60	*MM60	*MM60
*k[f#]	*k[f#]	*k[f#]	*k[f#]	*k[f#]	*k[f#]
*G:	*G:	*G:	*G:	*G:	*G:
*>[A,A,B]	*>[A,A,B]	*>[A,A,B]	*>[A,A,B]	*>[A,A,B]	*>[A,A,B]
*>A	*>A	*>A	*>A	*>A	*>A
I	4CC	8G	4B	4d	4g
.	.	8F#	.	.	.
=1	=1	=1	=1	=1	=1
vi	4AA	4E	4B	4e	4g
iii	4EE	4BB	8B	4d	4f#
.	.	.	8A	.	.
IV	4FF	4C	4G	8d	4e
.	.	.	.	8c	.
I	4CC	8GG	4G	8B	4d
.	.	8AA	.	8c	.
=2	=2	=2	=2	=2	=2
Ib	4CC	4BB	4.G	4d	4g
ii7b	8DD	8C	.	8e	4a
V	8GG	8D	8F#	8d	.
I;	4CC;	4GG;	4G;	4d;	4b;
I	4CC	4GG	8G	4d	4b
.	.	.	8A	.	.
=3	=3	=3	=3	=3	=3
I	8CC	4G	8B	8d	8b
ii7d	8DD	.	8c	8e	8a
Vb/vi	4EE	4D#	8B	4f#	4b
.	.	.	8A	.	.
vi	4AA	8E	4.G	4.e	4b
.	.	8D	.	.	.
ii7b	8DD	8C	.	.	4a
V	8GG	8D	8F#	8d	.
=4	=4	=4	=4	=4	=4
Ib	8CC	8BB	4G	8d	8g
ii7b	8DD	8C	.	8e	8a
V	4GG	4D	4F#	8d	4aT
.	.	.	.	8c	.
I;	4CC;	4GG;	4D;	4B;	4g;
=:|!	=:|!	=:|!	=:|!	=:|!	=:|!
*>B	*>B	*>B	*>B	*>B	*>B
I	4CC	4GG	4D	4B	4g
=5	=5	=5	=5	=5	=5
IV	4FF	4C	4E	4c	8g
.	.	.	.	.	8a
Ib	4CC	8BB	8D	4g	4b
.	.	8C	8E	.	.
V	4GG	4D	4F#	8d	4a
.	.	.	.	8c	.
Vb/vi	4EE	4D#	4F#	4B	4b
=6	=6	=6	=6	=6	=6
vi	4AA	4E	8F#	2B	4g
.	.	.	4E	.	.
V/vi	4EE	4BB	.	.	4f#
.	.	.	8D#	.	.
vi;	4AA;	4EE;	4G;	4B;	4e;
vi	4AA	8E	8G	4B	4e
.	.	8D	8F#	.	.
!!linebreak: 3
=7	=7	=7	=7	=7	=7
Vb/V	4DD	4C#	4E	4A	8a
.	.	.	.	.	8g
V	4GG	8D	4D	4A	4f#
.	.	8C#	.	.	.
Ib	8CC	8BB	4D	8d	8g
I7	8CC	8GG	.	8B	8f#
V/V	4DD	4AA	8A	4c#	4e
.	.	.	8G	.	.
=8	=8	=8	=8	=8	=8
V;	4GG;	4DD;	4F#;	4A;	4d;
V	4GG	8D	8F#	4A	4d
.	.	8C	8E	.	.
Ib	4CC	4BB	4D	8d	4g
.	.	.	.	8c	.
vi	4AA	8E	4G	4B	4g
.	.	8D	.	.	.
=9	=9	=9	=9	=9	=9
ii7b	4DD	8C	4G	8e	4a
.	.	8AA	.	8c	.
V	4GG	4D	4F#	4d	4a
I	4CC	4.GG	4G	8d	8b
.	.	.	.	8c	8a
V7/IV	4CC	.	4F	4d	4b
.	.	16AA	.	.	.
.	.	16BB	.	.	.
=10	=10	=10	=10	=10	=10
IV;	4FF;	4C;	4E;	4c;	4g;
I	4CC	4BB	4G	4d	4g
ii	4DD	4AA	8A	8c	4cc
.	.	.	8B	8d	.
ii	4DD	4A	4c	4e	4cc
=11	=11	=11	=11	=11	=11
iv/ii	4GG	8D	4d	4f	8b
.	.	8F	.	.	8a
V/ii	4AA	4E	4G#	4B	4b
ii;	4DD;	4AA;	4E;	4c;	4a;
V	4GG	4D	4F#	4d	4a
=12	=12	=12	=12	=12	=12
I	4CC	8G	4G	4d	4b
.	.	8F#	.	.	.
vi	4AA	8E	4G	4e	4b
.	.	8D	.	.	.
iib	4DD	8C	4A	4e	4cc
.	.	8BB	.	.	.
IVb/IV	4BB-	4AA	4A	4f	4cc
!!linebreak: 3
=13	=13	=13	=13	=13	=13
V7/IV	4CC	4GG	8B	4f	8dd
.	.	.	8A	.	16cc
.	.	.	.	.	16b
vi7/IV	8DD	8AA	8G	8e	8cc
viio/IV	8EE	8BB	8F	8d	8dd
IV;	4FF;	4C;	4E;	4c;	4g;
I	4CC	4G	8G	4d	4b
.	.	.	8F#	.	.
=14	=14	=14	=14	=14	=14
Vb/V	4DD	4C#	4E	4e	8a
.	.	.	.	.	8g
V	4GG	4D	4A	4d	4f#
Ib	8CC	8BB	4D	8d	8g
I7	8CC	8GG	.	8B	8f#
V/V	4DD	4AA	8A	4c#	4e
.	.	.	8G	.	.
=15	=15	=15	=15	=15	=15
V;	4GG;	4DD;	4F#;	4A;	4d;
V	4GG	4DD	4F#	4A	4d
vi	4AA	4EE	8BB	4e	4g
.	.	.	8C#	.	.
Vb	4GG	8FF#	4D	8A	4f#
.	.	8GG	.	8B	.
=16	=16	=16	=16	=16	=16
ii	4DD	4AA	4A	4c	4e
Ib	4CC	4BB	8A	4d	4d
.	.	.	8G	.	.
viio7c	4BB	4C	8G	4.e	4a
.	.	.	8F#	.	.
viio7/V	4FF#	4C#	4G	.	4b
.	.	.	.	16f#	.
.	.	.	.	16g	.
=17	=17	=17	=17	=17	=17
V;	4GG;	4D;	4F#;	4d;	4a;
Vb/vi	4EE	4D#	8B	4f#	4b
.	.	.	8A	.	.
vi	4AA	8E	8G	4e	4cc
.	.	8F#	8A	.	.
I	8CC	4G	8B	8d	4b
IV7c	8FF	.	8c	8e	.
=18	=18	=18	=18	=18	=18
V7d	8GG	8C	8d	4f#	4a
V7	8GG	8D	8c	.	.
vi	4AA	4E	8B	2g	8g
.	.	.	8c	.	8a
Ic	4CC	8D	4.d	.	4b
.	.	8C	.	.	.
V	4GG	4D	.	4f#	4a
.	.	.	8c	.	.
=19	=19	=19	=19	=19	=19
I;	2.CC;	2.GG;	2.B;	2.d;	2.g;
==	==	==	==	==	==
*-	*-	*-	*-	*-	*-
!!chor2scor: -l 3 -s 0.6 -o %b.pmx
!!!YEC: Copyright 1994, David Huron
!!!YEC: Changes/Additions 2001 by Craig Stuart Sapp
!!!YEN: United States of America
!!!SMA: 371 Bach Chorales, edited by Ludwig Erk, C.F. Peters
!!!PDT: 1850, 1865
!!!ONB: Harmony and Root analysis done manually
